src/assets/images/people.svg

<svg width="105" height="77" viewBox="0 0 105 77" fill="none" xmlns="http://www.w3.org/2000/svg">
<path d="M66.5974 55.38C64.7122 53.9562 62.5324 52.9722 60.2175 52.5L60.8675 51.76C62.027 50.5063 62.9033 49.0177 63.4365 47.3954C63.9697 45.773 64.1475 44.0549 63.9578 42.3578C63.7681 40.6606 63.2152 39.0241 62.3369 37.5596C61.4586 36.095 60.2752 34.8367 58.8675 33.87C57.29 32.8957 55.5589 32.1959 53.7476 31.8H50.5575C50.3875 32.01 50.1375 31.96 49.9175 32.01C47.8301 32.3952 45.888 33.3443 44.3015 34.7545C42.7151 36.1647 41.5448 37.9822 40.9175 40.01C40.2024 42.013 40.0604 44.1758 40.5073 46.2551C40.9543 48.3344 41.9725 50.2478 43.4475 51.78L44.0276 52.4399C43.9276 52.5099 43.8875 52.57 43.8275 52.59L43.1575 52.77C37.1575 54.61 33.3375 58.57 32.0775 64.77C31.4175 67.98 31.8375 71.27 31.8275 74.52C31.8275 75.52 32.5776 76.1 33.7476 76.1H70.6375C71.9575 76.1 72.5777 75.47 72.5877 74.1C72.5877 71.74 72.6477 69.38 72.5877 67.02C72.5339 64.7533 71.967 62.5282 70.9295 60.5121C69.892 58.496 68.4107 56.7413 66.5974 55.38ZM43.5976 43.65C43.5936 41.9624 44.0909 40.3116 45.0265 38.907C45.9621 37.5024 47.2938 36.4072 48.8526 35.7605C50.4114 35.1138 52.1271 34.9446 53.7822 35.2743C55.4374 35.604 56.9572 36.4179 58.1492 37.6127C59.3411 38.8074 60.1515 40.3292 60.4773 41.9851C60.8032 43.641 60.6297 45.3564 59.9793 46.9137C59.3289 48.471 58.2308 49.7999 56.824 50.7322C55.4172 51.6644 53.7652 52.1579 52.0775 52.15C49.8393 52.1161 47.7032 51.2078 46.126 49.6194C44.5488 48.0309 43.6556 45.8884 43.6376 43.65H43.5976ZM68.2176 72.65C62.8376 72.65 57.4575 72.65 52.0875 72.65C46.7175 72.65 41.4576 72.65 36.1476 72.65C35.3176 72.65 35.0576 72.42 35.1476 71.59C35.2676 69.48 34.9576 67.34 35.3876 65.24C35.8585 62.6687 37.1769 60.3293 39.1326 58.5947C41.0882 56.8602 43.5684 55.8306 46.1775 55.67C50.2205 55.425 54.2747 55.425 58.3176 55.67C61.1939 55.8966 63.8862 57.1735 65.8816 59.2574C67.877 61.3414 69.0359 64.0866 69.1375 66.97C69.1975 68.56 69.1375 70.16 69.1375 71.75C69.2175 72.5 68.9376 72.62 68.2176 72.62V72.65ZM104.288 60.7C104.232 58.4484 103.67 56.2383 102.643 54.2336C101.617 52.229 100.152 50.4812 98.3574 49.12C96.4857 47.6884 94.3209 46.6878 92.0176 46.1899C92.2776 45.8899 92.4575 45.67 92.6575 45.45C93.8186 44.197 94.6961 42.7086 95.2302 41.0861C95.7644 39.4635 95.9427 37.7448 95.753 36.0471C95.5632 34.3495 95.0097 32.7126 94.1304 31.248C93.2511 29.7835 92.0666 28.5257 90.6575 27.5601C89.0835 26.5859 87.3558 25.8859 85.5476 25.49H82.3574C82.1874 25.7 81.9376 25.65 81.7176 25.7C79.6215 26.0779 77.6695 27.0236 76.0738 28.4342C74.478 29.8448 73.2997 31.6661 72.6675 33.7C71.9559 35.7034 71.8157 37.8654 72.2625 39.944C72.7093 42.0226 73.7255 43.9359 75.1975 45.47L75.7776 46.13C75.6876 46.2 75.6477 46.26 75.5877 46.28C75.3677 46.34 75.1375 46.39 74.9175 46.46C72.4323 47.1646 70.1453 48.4384 68.2376 50.1801C68.803 50.5347 69.3472 50.9219 69.8675 51.34C70.2575 51.64 70.6176 51.96 70.9776 52.28C72.9221 50.564 75.388 49.5529 77.9776 49.41C82.0237 49.16 86.0813 49.16 90.1275 49.41C93.0021 49.6364 95.6933 50.9118 97.6885 52.9937C99.6837 55.0755 100.844 57.8183 100.948 60.7C100.998 62.29 100.948 63.89 100.948 65.48C100.948 66.19 100.718 66.36 100.038 66.36C94.6576 66.36 89.2775 66.36 83.8975 66.36H77.7176V66.8199C77.7176 67.8199 77.7176 68.82 77.7176 69.76H102.288C103.618 69.76 104.238 69.13 104.288 67.76C104.368 65.38 104.408 63.02 104.328 60.67L104.288 60.7ZM83.8675 45.89C82.186 45.8781 80.5459 45.3676 79.1546 44.4233C77.7632 43.479 76.6831 42.1433 76.051 40.5851C75.419 39.0268 75.2634 37.316 75.6038 35.6693C75.9442 34.0226 76.7656 32.5139 77.9636 31.334C79.1617 30.1541 80.6828 29.3561 82.3345 29.0409C83.9862 28.7257 85.6945 28.9074 87.2429 29.5632C88.7913 30.219 90.1103 31.3194 91.0332 32.7251C91.9561 34.1307 92.4413 35.7785 92.4275 37.46C92.3934 39.6979 91.4811 41.8329 89.8872 43.4043C88.2934 44.9757 86.1457 45.8576 83.9075 45.86L83.8675 45.89ZM46.2175 24.91C50.2604 24.66 54.3146 24.66 58.3574 24.91C60.3845 25.0612 62.3368 25.7396 64.0208 26.8781C65.7047 28.0165 67.0619 29.5753 67.9575 31.4C68.4149 30.1406 69.012 28.9365 69.7376 27.8101C68.8498 26.6176 67.8111 25.5452 66.6475 24.62C64.7785 23.1838 62.6126 22.1827 60.3076 21.6899L60.9575 20.95C62.1169 19.6971 62.993 18.2095 63.5261 16.5879C64.0593 14.9663 64.2369 13.2489 64.0471 11.5525C63.8574 9.85611 63.3045 8.22053 62.4263 6.75684C61.5481 5.29314 60.3651 4.03564 58.9575 3.06995C57.3806 2.0925 55.6494 1.38927 53.8375 0.98999H50.6476C50.4776 1.19999 50.2276 1.14995 50.0076 1.19995C47.9202 1.58516 45.9781 2.53427 44.3916 3.94446C42.8052 5.35465 41.6349 7.17214 41.0076 9.19995C40.2925 11.2029 40.1504 13.3658 40.5973 15.4451C41.0443 17.5244 42.0625 19.4377 43.5375 20.97L44.1176 21.64C44.0565 21.6942 43.9893 21.7411 43.9175 21.78C43.6975 21.85 43.4776 21.9 43.2476 21.96C39.8187 22.8881 36.8072 24.9545 34.7075 27.8199C35.4639 28.9378 36.0817 30.1433 36.5475 31.41C37.4403 29.568 38.8058 27.9958 40.5047 26.8539C42.2035 25.712 44.1748 25.0412 46.2175 24.91ZM43.6875 12.91C43.6836 11.2224 44.1809 9.57158 45.1165 8.16699C46.052 6.7624 47.3837 5.66725 48.9425 5.02051C50.5013 4.37377 52.2171 4.20456 53.8722 4.5343C55.5273 4.86404 57.0473 5.67793 58.2393 6.87268C59.4312 8.06743 60.2413 9.58922 60.5672 11.2451C60.893 12.901 60.7198 14.6164 60.0694 16.1737C59.4189 17.731 58.3206 19.0599 56.9138 19.9922C55.507 20.9244 53.8551 21.418 52.1675 21.41C49.9119 21.3996 47.7514 20.5002 46.1546 18.9071C44.5577 17.314 43.6534 15.1556 43.6376 12.9L43.6875 12.91ZM4.43752 66.35C3.60752 66.35 3.34752 66.12 3.43752 65.35C3.54752 63.23 3.2475 61.09 3.6675 58.99C4.14009 56.4195 5.45913 54.081 7.41445 52.3468C9.36977 50.6126 11.849 49.5823 14.4575 49.42C18.5037 49.17 22.5614 49.17 26.6076 49.42C29.1132 49.5887 31.4931 50.58 33.3776 52.24C34.2278 51.4909 35.1449 50.8214 36.1176 50.24C35.7376 49.87 35.3276 49.51 34.8976 49.16C33.0258 47.7284 30.8608 46.7278 28.5575 46.23C28.8175 45.93 28.9975 45.71 29.1975 45.49C30.3587 44.237 31.2361 42.7486 31.7703 41.126C32.3044 39.5034 32.4827 37.7848 32.2929 36.0872C32.1031 34.3895 31.5498 32.7527 30.6706 31.2881C29.7913 29.8235 28.6067 28.5656 27.1975 27.6C25.6236 26.6259 23.8957 25.926 22.0875 25.53H18.8976C18.7276 25.74 18.4776 25.69 18.2576 25.74C16.1616 26.1179 14.2094 27.0637 12.6137 28.4742C11.0179 29.8848 9.83977 31.7062 9.20754 33.74C8.49595 35.7435 8.35571 37.9054 8.80251 39.984C9.24931 42.0626 10.2656 43.9759 11.7376 45.51L12.3175 46.17C12.2275 46.24 12.1876 46.2999 12.1276 46.3199C11.9076 46.3799 11.6775 46.43 11.4575 46.5C5.45754 48.34 1.63757 52.3 0.367574 58.5C-0.282426 61.7 0.127584 64.99 0.127584 68.24C0.127584 69.24 0.877496 69.8199 2.0375 69.8199H26.5575C26.5575 68.7299 26.5575 67.5901 26.6575 66.4301H20.4575C15.0175 66.3201 9.69759 66.3 4.38759 66.34L4.43752 66.35ZM11.8876 37.35C11.8837 35.6623 12.381 34.0115 13.3165 32.6069C14.2521 31.2023 15.5837 30.1073 17.1425 29.4606C18.7013 28.8138 20.417 28.6445 22.0722 28.9742C23.7273 29.304 25.2472 30.1179 26.4391 31.3126C27.631 32.5074 28.4414 34.0292 28.7672 35.6851C29.0931 37.341 28.9198 39.0564 28.2694 40.6136C27.619 42.1709 26.5207 43.5 25.1139 44.4323C23.7071 45.3645 22.0552 45.8579 20.3676 45.85C18.1154 45.8396 15.9578 44.943 14.3615 43.3542C12.7652 41.7654 11.8585 39.6121 11.8375 37.36L11.8876 37.35Z" fill="#5C5C5C"/>
</svg>

<?xml version="1.0" encoding="utf-8"?>
<!-- Generator: Adobe Illustrator 25.4.1, SVG Export Plug-In . SVG Version: 6.00 Build 0)  -->
<svg version="1.1" id="Layer_1" xmlns="http://www.w3.org/2000/svg" xmlns:xlink="http://www.w3.org/1999/xlink" x="0px" y="0px"
	 viewBox="0 0 105 77" style="enable-background:new 0 0 105 77;" xml:space="preserve">
<style type="text/css">
	.st0{fill:#FFFFFF;}
</style>
<path class="st0" d="M66.6,55.4c-1.9-1.4-4.1-2.4-6.4-2.9l0.7-0.7c1.2-1.3,2-2.7,2.6-4.4c0.5-1.6,0.7-3.3,0.5-5
	c-0.2-1.7-0.7-3.3-1.6-4.8c-0.9-1.5-2.1-2.7-3.5-3.7c-1.6-1-3.3-1.7-5.1-2.1h-3.2C50.4,32,50.1,32,49.9,32c-2.1,0.4-4,1.3-5.6,2.7
	c-1.6,1.4-2.8,3.2-3.4,5.3c-0.7,2-0.9,4.2-0.4,6.2c0.4,2.1,1.5,4,2.9,5.5l0.6,0.7c-0.1,0.1-0.1,0.1-0.2,0.2l-0.7,0.2
	c-6,1.8-9.8,5.8-11.1,12c-0.7,3.2-0.2,6.5-0.2,9.8c0,1,0.8,1.6,1.9,1.6h36.9c1.3,0,1.9-0.6,2-2c0-2.4,0.1-4.7,0-7.1
	c-0.1-2.3-0.6-4.5-1.7-6.5C69.9,58.5,68.4,56.7,66.6,55.4z M43.6,43.7c0-1.7,0.5-3.3,1.4-4.7c0.9-1.4,2.3-2.5,3.8-3.1
	c1.6-0.6,3.3-0.8,4.9-0.5c1.7,0.3,3.2,1.1,4.4,2.3c1.2,1.2,2,2.7,2.3,4.4c0.3,1.7,0.2,3.4-0.5,4.9c-0.7,1.6-1.7,2.9-3.2,3.8
	c-1.4,0.9-3.1,1.4-4.7,1.4c-2.2,0-4.4-0.9-6-2.5C44.5,48,43.7,45.9,43.6,43.7L43.6,43.7z M68.2,72.7c-5.4,0-10.8,0-16.1,0
	s-10.6,0-15.9,0c-0.8,0-1.1-0.2-1-1.1c0.1-2.1-0.2-4.2,0.2-6.3c0.5-2.6,1.8-4.9,3.7-6.6c2-1.7,4.4-2.8,7-2.9c4-0.2,8.1-0.2,12.1,0
	c2.9,0.2,5.6,1.5,7.6,3.6c2,2.1,3.2,4.8,3.3,7.7c0.1,1.6,0,3.2,0,4.8C69.2,72.5,68.9,72.6,68.2,72.7L68.2,72.7z M104.3,60.7
	c-0.1-2.3-0.6-4.5-1.6-6.5c-1-2-2.5-3.8-4.3-5.1c-1.9-1.4-4-2.4-6.3-2.9c0.3-0.3,0.4-0.5,0.6-0.7c1.2-1.3,2-2.7,2.6-4.4
	c0.5-1.6,0.7-3.3,0.5-5c-0.2-1.7-0.7-3.3-1.6-4.8c-0.9-1.5-2.1-2.7-3.5-3.7c-1.6-1-3.3-1.7-5.1-2.1h-3.2c-0.2,0.2-0.4,0.2-0.6,0.2
	c-2.1,0.4-4,1.3-5.6,2.7c-1.6,1.4-2.8,3.2-3.4,5.3c-0.7,2-0.9,4.2-0.4,6.2c0.4,2.1,1.5,4,2.9,5.5l0.6,0.7c-0.1,0.1-0.1,0.1-0.2,0.1
	c-0.2,0.1-0.5,0.1-0.7,0.2c-2.5,0.7-4.8,2-6.7,3.7c0.6,0.4,1.1,0.7,1.6,1.2c0.4,0.3,0.8,0.6,1.1,0.9c1.9-1.7,4.4-2.7,7-2.9
	c4-0.2,8.1-0.2,12.1,0c2.9,0.2,5.6,1.5,7.6,3.6c2,2.1,3.2,4.8,3.3,7.7c0.1,1.6,0,3.2,0,4.8c0,0.7-0.2,0.9-0.9,0.9
	c-5.4,0-10.8,0-16.1,0h-6.2v0.5c0,1,0,2,0,2.9h24.6c1.3,0,1.9-0.6,2-2C104.4,65.4,104.4,63,104.3,60.7L104.3,60.7z M83.9,45.9
	c-1.7,0-3.3-0.5-4.7-1.5c-1.4-0.9-2.5-2.3-3.1-3.8c-0.6-1.6-0.8-3.3-0.4-4.9s1.2-3.2,2.4-4.3c1.2-1.2,2.7-2,4.4-2.3
	c1.7-0.3,3.4-0.1,4.9,0.5c1.5,0.7,2.9,1.8,3.8,3.2c0.9,1.4,1.4,3.1,1.4,4.7c0,2.2-0.9,4.4-2.5,5.9C88.3,45,86.1,45.9,83.9,45.9
	L83.9,45.9z M46.2,24.9c4-0.2,8.1-0.2,12.1,0c2,0.2,4,0.8,5.7,2c1.7,1.1,3,2.7,3.9,4.5c0.5-1.3,1.1-2.5,1.8-3.6
	c-0.9-1.2-1.9-2.3-3.1-3.2c-1.9-1.4-4-2.4-6.3-2.9L61,21c1.2-1.3,2-2.7,2.6-4.4c0.5-1.6,0.7-3.3,0.5-5c-0.2-1.7-0.7-3.3-1.6-4.8
	C61.5,5.3,60.4,4,59,3.1c-1.6-1-3.3-1.7-5.1-2.1h-3.2c-0.2,0.2-0.4,0.2-0.6,0.2c-2.1,0.4-4,1.3-5.6,2.7c-1.6,1.4-2.8,3.2-3.4,5.3
	c-0.7,2-0.9,4.2-0.4,6.2c0.4,2.1,1.5,4,2.9,5.5l0.6,0.7c-0.1,0.1-0.1,0.1-0.2,0.1c-0.2,0.1-0.4,0.1-0.7,0.2c-3.4,0.9-6.4,3-8.5,5.9
	c0.8,1.1,1.4,2.3,1.8,3.6c0.9-1.8,2.3-3.4,4-4.6C42.2,25.7,44.2,25,46.2,24.9z M43.7,12.9c0-1.7,0.5-3.3,1.4-4.7
	c0.9-1.4,2.3-2.5,3.8-3.1s3.3-0.8,4.9-0.5s3.2,1.1,4.4,2.3c1.2,1.2,2,2.7,2.3,4.4c0.3,1.7,0.2,3.4-0.5,4.9c-0.7,1.6-1.7,2.9-3.2,3.8
	c-1.4,0.9-3.1,1.4-4.7,1.4c-2.3,0-4.4-0.9-6-2.5C44.6,17.3,43.7,15.2,43.7,12.9L43.7,12.9z M4.4,66.3c-0.8,0-1.1-0.2-1-1
	c0.1-2.1-0.2-4.3,0.2-6.4c0.5-2.6,1.8-4.9,3.7-6.6c2-1.7,4.4-2.8,7-2.9c4-0.2,8.1-0.2,12.2,0c2.5,0.2,4.9,1.2,6.8,2.8
	c0.9-0.7,1.8-1.4,2.7-2c-0.4-0.4-0.8-0.7-1.2-1.1c-1.9-1.4-4-2.4-6.3-2.9c0.3-0.3,0.4-0.5,0.6-0.7c1.2-1.3,2-2.7,2.6-4.4
	c0.5-1.6,0.7-3.3,0.5-5c-0.2-1.7-0.7-3.3-1.6-4.8c-0.9-1.5-2.1-2.7-3.5-3.7c-1.6-1-3.3-1.7-5.1-2.1h-3.2c-0.2,0.2-0.4,0.2-0.6,0.2
	c-2.1,0.4-4,1.3-5.6,2.7c-1.6,1.4-2.8,3.2-3.4,5.3c-0.7,2-0.9,4.2-0.4,6.2c0.4,2.1,1.5,4,2.9,5.5l0.6,0.7c-0.1,0.1-0.1,0.1-0.2,0.1
	c-0.2,0.1-0.5,0.1-0.7,0.2c-6,1.8-9.8,5.8-11.1,12c-0.6,3.2-0.2,6.5-0.2,9.7c0,1,0.7,1.6,1.9,1.6h24.5c0-1.1,0-2.2,0.1-3.4h-6.2
	C15,66.3,9.7,66.3,4.4,66.3L4.4,66.3z M11.9,37.3c0-1.7,0.5-3.3,1.4-4.7c0.9-1.4,2.3-2.5,3.8-3.1c1.6-0.6,3.3-0.8,4.9-0.5
	c1.7,0.3,3.2,1.1,4.4,2.3c1.2,1.2,2,2.7,2.3,4.4c0.3,1.7,0.2,3.4-0.5,4.9c-0.7,1.6-1.7,2.9-3.2,3.8c-1.4,0.9-3.1,1.4-4.7,1.4
	c-2.3,0-4.4-0.9-6-2.5C12.8,41.8,11.9,39.6,11.9,37.3L11.9,37.3z"/>
</svg>
